src/assets/menu.svg

<svg fill="#FFFFFF" xmlns="http://www.w3.org/2000/svg"  viewBox="0 0 72 72" width="64px" height="64px"><path d="M56 48c2.209 0 4 1.791 4 4 0 2.209-1.791 4-4 4-1.202 0-38.798 0-40 0-2.209 0-4-1.791-4-4 0-2.209 1.791-4 4-4C17.202 48 54.798 48 56 48zM56 32c2.209 0 4 1.791 4 4 0 2.209-1.791 4-4 4-1.202 0-38.798 0-40 0-2.209 0-4-1.791-4-4 0-2.209 1.791-4 4-4C17.202 32 54.798 32 56 32zM56 16c2.209 0 4 1.791 4 4 0 2.209-1.791 4-4 4-1.202 0-38.798 0-40 0-2.209 0-4-1.791-4-4 0-2.209 1.791-4 4-4C17.202 16 54.798 16 56 16z"/></svg>

<svg fill="#FFF" xmlns="http://www.w3.org/2000/svg" viewBox="0 0 72 72" width="64" height="64"><path d="M56 48a4 4 0 0 1 0 8H16a4 4 0 0 1 0-8h40zm0-16a4 4 0 0 1 0 8H16a4 4 0 0 1 0-8h40zm0-16a4 4 0 0 1 0 8H16a4 4 0 0 1 0-8h40z"/></svg>
